packages/kaspersky-hexa-ui-icons/src/iconsSVGs/16/InstagramColor.svg

<svg width="16" height="16" viewBox="0 0 16 16" fill="none" xmlns="http://www.w3.org/2000/svg">
<path d="M8.00237 1C5.0799 1 4.22519 1.00302 4.05905 1.0168C3.45931 1.06667 3.08611 1.16112 2.67954 1.3636C2.36621 1.51923 2.1191 1.69964 1.87522 1.95252C1.43106 2.41371 1.16188 2.98108 1.06444 3.65552C1.01706 3.98293 1.00328 4.04971 1.00048 5.72212C0.999402 6.27959 1.00048 7.01326 1.00048 7.99734C1.00048 10.9182 1.00371 11.7723 1.01771 11.9382C1.06616 12.5219 1.15768 12.8892 1.35149 13.2909C1.72189 14.0599 2.4293 14.6372 3.26269 14.8526C3.55126 14.9269 3.86997 14.9679 4.27913 14.9872C4.45249 14.9948 6.2194 15.0002 7.9874 15.0002C9.7554 15.0002 11.5234 14.998 11.6924 14.9894C12.1662 14.9671 12.4413 14.9302 12.7455 14.8515C13.5843 14.6351 14.2788 14.0664 14.6567 13.2866C14.8467 12.8946 14.9431 12.5133 14.9867 11.96C14.9962 11.8394 15.0002 9.91617 15.0002 7.9955C15.0002 6.07452 14.9959 4.15483 14.9864 4.0342C14.9422 3.47199 14.8459 3.09396 14.6497 2.69438C14.4887 2.36729 14.31 2.12302 14.0505 1.87325C13.5874 1.43081 13.021 1.16155 12.3461 1.06419C12.0191 1.01691 11.954 1.00291 10.2807 1H8.00237Z" fill="url(#paint0_radial_21793_2502)"/>
<path d="M8.00237 1C5.0799 1 4.22519 1.00302 4.05905 1.0168C3.45931 1.06667 3.08611 1.16112 2.67954 1.3636C2.36621 1.51923 2.1191 1.69964 1.87522 1.95252C1.43106 2.41371 1.16188 2.98108 1.06444 3.65552C1.01706 3.98293 1.00328 4.04971 1.00048 5.72212C0.999402 6.27959 1.00048 7.01326 1.00048 7.99734C1.00048 10.9182 1.00371 11.7723 1.01771 11.9382C1.06616 12.5219 1.15768 12.8892 1.35149 13.2909C1.72189 14.0599 2.4293 14.6372 3.26269 14.8526C3.55126 14.9269 3.86997 14.9679 4.27913 14.9872C4.45249 14.9948 6.2194 15.0002 7.9874 15.0002C9.7554 15.0002 11.5234 14.998 11.6924 14.9894C12.1662 14.9671 12.4413 14.9302 12.7455 14.8515C13.5843 14.6351 14.2788 14.0664 14.6567 13.2866C14.8467 12.8946 14.9431 12.5133 14.9867 11.96C14.9962 11.8394 15.0002 9.91617 15.0002 7.9955C15.0002 6.07452 14.9959 4.15483 14.9864 4.0342C14.9422 3.47199 14.8459 3.09396 14.6497 2.69438C14.4887 2.36729 14.31 2.12302 14.0505 1.87325C13.5874 1.43081 13.021 1.16155 12.3461 1.06419C12.0191 1.01691 11.954 1.00291 10.2807 1H8.00237Z" fill="url(#paint1_radial_21793_2502)"/>
<path d="M8.00063 2.55537C6.52198 2.55537 6.33641 2.56184 5.75566 2.58827C5.17604 2.61481 4.7804 2.70657 4.43422 2.84121C4.07612 2.98027 3.77236 3.16629 3.46974 3.46903C3.16688 3.77165 2.98086 4.07541 2.84134 4.43339C2.70636 4.77968 2.61449 5.17543 2.5884 5.75482C2.56242 6.33556 2.55562 6.52124 2.55562 7.99988C2.55562 9.47852 2.5622 9.66352 2.58851 10.2443C2.61517 10.8239 2.70693 11.2195 2.84146 11.5657C2.98063 11.9238 3.16666 12.2275 3.4694 12.5302C3.77191 12.833 4.07567 13.0195 4.43354 13.1586C4.77995 13.2932 5.1757 13.385 5.75521 13.4115C6.33596 13.4379 6.52141 13.4444 7.99995 13.4444C9.47872 13.4444 9.66372 13.4379 10.2445 13.4115C10.8241 13.385 11.2202 13.2932 11.5666 13.1586C11.9246 13.0195 12.2279 12.833 12.5304 12.5302C12.8333 12.2275 13.0193 11.9238 13.1588 11.5658C13.2926 11.2195 13.3845 10.8238 13.4117 10.2444C13.4378 9.66363 13.4446 9.47852 13.4446 7.99988C13.4446 6.52124 13.4378 6.33568 13.4117 5.75493C13.3845 5.17532 13.2926 4.77968 13.1588 4.4335C13.0193 4.07541 12.8333 3.77165 12.5304 3.46903C12.2275 3.16618 11.9247 2.98016 11.5663 2.84121C11.2192 2.70657 10.8233 2.61481 10.2437 2.58827C9.66293 2.56184 9.47804 2.55537 7.99893 2.55537H8.00063ZM7.51221 3.53652C7.65717 3.53629 7.81892 3.53652 8.00063 3.53652C9.45433 3.53652 9.62663 3.54174 10.2007 3.56782C10.7315 3.5921 11.0196 3.6808 11.2116 3.75532C11.4656 3.854 11.6468 3.97197 11.8372 4.16252C12.0278 4.35308 12.1458 4.53456 12.2447 4.78864C12.3192 4.98033 12.408 5.26844 12.4322 5.79928C12.4583 6.37322 12.4639 6.54563 12.4639 7.99863C12.4639 9.45164 12.4583 9.62404 12.4322 10.198C12.4079 10.7288 12.3192 11.0169 12.2447 11.2086C12.146 11.4627 12.0278 11.6436 11.8372 11.8341C11.6467 12.0246 11.4658 12.1426 11.2116 12.2413C11.0199 12.3161 10.7315 12.4046 10.2007 12.4289C9.62674 12.455 9.45433 12.4606 8.00063 12.4606C6.54682 12.4606 6.37453 12.455 5.80058 12.4289C5.26973 12.4044 4.98162 12.3157 4.78959 12.2412C4.53551 12.1425 4.35402 12.0245 4.16346 11.8339C3.9729 11.6434 3.85494 11.4624 3.75603 11.2082C3.68151 11.0165 3.59269 10.7284 3.56853 10.1975C3.54244 9.62359 3.53723 9.45118 3.53723 7.99727C3.53723 6.54336 3.54244 6.37186 3.56853 5.79792C3.59281 5.26708 3.68151 4.97897 3.75603 4.78705C3.85471 4.53298 3.9729 4.35149 4.16346 4.16094C4.35402 3.97038 4.53551 3.85241 4.78959 3.7535C4.98151 3.67864 5.26973 3.59017 5.80058 3.56578C6.30284 3.5431 6.49748 3.53629 7.51221 3.53516V3.53652ZM10.9069 4.44053C10.5462 4.44053 10.2535 4.73284 10.2535 5.09365C10.2535 5.45435 10.5462 5.74699 10.9069 5.74699C11.2676 5.74699 11.5602 5.45435 11.5602 5.09365C11.5602 4.73295 11.2676 4.44053 10.9069 4.44053ZM8.00063 5.2039C6.45653 5.2039 5.20462 6.4558 5.20462 7.99988C5.20462 9.54397 6.45653 10.7953 8.00063 10.7953C9.54474 10.7953 10.7962 9.54397 10.7962 7.99988C10.7962 6.4558 9.54474 5.2039 8.00063 5.2039ZM8.00063 6.18504C9.00289 6.18504 9.81549 6.99752 9.81549 7.99988C9.81549 9.00212 9.00289 9.81472 8.00063 9.81472C6.99827 9.81472 6.18578 9.00212 6.18578 7.99988C6.18578 6.99752 6.99827 6.18504 8.00063 6.18504Z" fill="white"/>
<defs>
<radialGradient id="paint0_radial_21793_2502" cx="0" cy="0" r="1" gradientUnits="userSpaceOnUse" gradientTransform="translate(4.71881 16.0785) rotate(-90) scale(13.8752 12.905)">
<stop stop-color="#FFDD55"/>
<stop offset="0.1" stop-color="#FFDD55"/>
<stop offset="0.5" stop-color="#FF543E"/>
<stop offset="1" stop-color="#C837AB"/>
</radialGradient>
<radialGradient id="paint1_radial_21793_2502" cx="0" cy="0" r="1" gradientTransform="matrix(1.21737 6.08163 -25.0682 5.02074 -1.3451 2.00855)" gradientUnits="userSpaceOnUse">
<stop stop-color="#3771C8"/>
<stop offset="0.128" stop-color="#3771C8"/>
<stop offset="1" stop-color="#6600FF" stop-opacity="0"/>
</radialGradient>
</defs>
</svg>

<svg xmlns="http://www.w3.org/2000/svg" width="16" height="16" fill="none" viewBox="0 0 16 16"><path fill="url(#a)" d="M8.0024 1c-2.9225 0-3.7772.003-3.9433.0168-.5998.0499-.973.1443-1.3796.3468-.3133.1556-.5604.336-.8043.589-.4441.4611-.7133 1.0285-.8108 1.703-.0473.3273-.0611.3941-.064 2.0665-.001.5575 0 1.2912 0 2.2752 0 2.9209.0033 3.775.0173 3.9409.0485.5837.14.951.3338 1.3527.3704.769 1.0778 1.3463 1.9112 1.5617.2886.0743.6073.1153 1.0164.1346.1734.0076 1.9403.013 3.7083.013s3.536-.0022 3.705-.0108c.4738-.0223.7489-.0592 1.0531-.1379a2.93 2.93 0 0 0 1.9112-1.5649c.19-.392.2864-.7733.33-1.3266.0095-.1206.0135-2.0438.0135-3.9645 0-1.921-.0043-3.8407-.0138-3.9613-.0442-.5622-.1405-.9402-.3367-1.3398-.161-.3271-.3397-.5714-.5992-.8211-.4631-.4425-1.0295-.7117-1.7044-.8091-.327-.0473-.3921-.0613-2.0654-.0642z"/><path fill="url(#b)" d="M8.0024 1c-2.9225 0-3.7772.003-3.9433.0168-.5998.0499-.973.1443-1.3796.3468-.3133.1556-.5604.336-.8043.589-.4441.4611-.7133 1.0285-.8108 1.703-.0473.3273-.0611.3941-.064 2.0665-.001.5575 0 1.2912 0 2.2752 0 2.9209.0033 3.775.0173 3.9409.0485.5837.14.951.3338 1.3527.3704.769 1.0778 1.3463 1.9112 1.5617.2886.0743.6073.1153 1.0164.1346.1734.0076 1.9403.013 3.7083.013s3.536-.0022 3.705-.0108c.4738-.0223.7489-.0592 1.0531-.1379a2.93 2.93 0 0 0 1.9112-1.5649c.19-.392.2864-.7733.33-1.3266.0095-.1206.0135-2.0438.0135-3.9645 0-1.921-.0043-3.8407-.0138-3.9613-.0442-.5622-.1405-.9402-.3367-1.3398-.161-.3271-.3397-.5714-.5992-.8211-.4631-.4425-1.0295-.7117-1.7044-.8091-.327-.0473-.3921-.0613-2.0654-.0642z"/><path fill="#fff" d="M8.0006 2.5554c-1.4786 0-1.6642.0064-2.245.0329-.5796.0265-.9752.1183-1.3214.253-.358.139-.6618.325-.9645.6277-.3028.3027-.4888.6064-.6284.9644-.135.3463-.2268.742-.2529 1.3214-.026.5808-.0328.7664-.0328 2.245s.0066 1.6637.033 2.2445c.0266.5796.1183.9752.2529 1.3214.1391.3581.3252.6618.6279.9645.3025.3028.6063.4893.9641.6284.3464.1346.7422.2264 1.3217.2529.5808.0264.7662.0329 2.2447.0329 1.4788 0 1.6638-.0065 2.2446-.0329.5796-.0265.9757-.1183 1.3221-.2529.358-.1391.6613-.3256.9638-.6284.3029-.3027.4889-.6064.6284-.9644.1338-.3463.2257-.742.2529-1.3214.0261-.5808.0329-.7659.0329-2.2445s-.0068-1.6642-.0329-2.245c-.0272-.5796-.1191-.9752-.2529-1.3214-.1395-.358-.3255-.6619-.6284-.9645-.3029-.3028-.6057-.4888-.9641-.6278-.3471-.1346-.743-.2264-1.3226-.253-.5808-.0264-.7657-.0328-2.2448-.0328zm-.4884.9811c.145-.0002.3067 0 .4884 0 1.4537 0 1.626.0052 2.2001.0313.5308.0243.8189.113 1.0109.1875.254.0987.4352.2167.6256.4072.1906.1906.3086.372.4075.6261.0745.1917.1633.4798.1875 1.0107.0261.574.0317.7463.0317 2.1993s-.0056 1.6254-.0317 2.1994c-.0243.5308-.113.8189-.1875 1.0106-.0987.2541-.2169.435-.4075.6255s-.3714.3085-.6256.4072c-.1917.0748-.4801.1633-1.0109.1876-.574.0261-.7464.0317-2.2.0317-1.4539 0-1.6262-.0056-2.2001-.0317-.5309-.0245-.819-.1132-1.011-.1877-.254-.0987-.4356-.2167-.6261-.4073s-.3086-.3715-.4075-.6257c-.0745-.1917-.1633-.4798-.1875-1.0107-.026-.574-.0313-.7463-.0313-2.2002s.0052-1.6254.0313-2.1994c.0243-.5308.113-.819.1875-1.0109.0987-.254.2169-.4355.4075-.626s.372-.3086.626-.4075c.192-.0749.4802-.1633 1.011-.1877.5023-.0227.697-.0295 1.7117-.0306zm3.3947.904a.6533.6533 0 1 0 .6533.6532.6533.6533 0 0 0-.6533-.6532m-2.9063.7634c-1.544 0-2.796 1.2519-2.796 2.796s1.252 2.7954 2.796 2.7954c1.5441 0 2.7956-1.2513 2.7956-2.7954s-1.2515-2.796-2.7956-2.796m0 .9811c1.0023 0 1.8149.8125 1.8149 1.8149 0 1.0022-.8126 1.8148-1.8149 1.8148S6.1858 9.0021 6.1858 8c0-1.0024.8125-1.8149 1.8148-1.8149"/><defs><radialGradient id="a" cx="0" cy="0" r="1" gradientTransform="matrix(0 -13.8752 12.905 0 4.719 16.078)" gradientUnits="userSpaceOnUse"><stop stop-color="#fd5"/><stop offset="0" stop-color="#fd5"/><stop offset="1" stop-color="#ff543e"/><stop offset="1" stop-color="#c837ab"/></radialGradient><radialGradient id="b" cx="0" cy="0" r="1" gradientTransform="matrix(1.21737 6.08163 -25.0682 5.02074 -1.345 2.009)" gradientUnits="userSpaceOnUse"><stop stop-color="#3771c8"/><stop offset="0" stop-color="#3771c8"/><stop offset="1" stop-color="#60f" stop-opacity="0"/></radialGradient></defs></svg>
